X:1
T:Kristus krusts
T:Lielā Gavēņa poļu dziesma "Krzyżu Chrystusa"
T:Kristus krusts
C:Lielā Gavēņa poļu dziesma
C:"Krzyżu Chrystusa"
Z:A. Solims
%%score [ ( 1 2 ) ( 3 4 ) ]
L:1/8
Q:1/4=70
M:4/4
K:F
V:1 treble nm=" " snm=" "
V:2 treble 
V:3 bass nm="P2"
V:4 bass 
V:1
!f!"^Maestoso" A2 AA BAGA | GF E2 D4 | A2 AA BAGA | GF E2 D4 ||[M:3/4]!mf! G2 GG GE | %5
w: Refrēns tus krusts, e- si vien- mēr|teikts un sla- vēts|un vi- sos lai- kos sveikts un|go- dā tu- rēts!|1. te- vis Dievs par|
w: ||||2. si- nis te- vi|
w: ||||3. te- vis spēks un|
[M:4/4] F2 G2 A4 |[M:3/4] A2 BA GF |[M:4/4]"^rit." G2 (FE) D4 |] %8
w: ra- dī- bu|at- de- va sa- vu|dzī- vī- * bu.|
w: sla- cī- ja,|kas mūs no grē- kiem|maz- gā- * ja.|
w: spir- gtums plūst,|tu ne- ļauj dzī- vē|mums sa- * lūzt.|
V:2
 F2 E_E DF=EF | ED (D^C) A,4 | F2 FF FFFE | ^CD (DC) D4 ||[M:3/4] D2 DD CC |[M:4/4] D2 E2 F4 | %6
[M:3/4] F2 FD DD |[M:4/4] E2 (D^C) A,4 |] %8
V:3
 C2 CC B,=B,CC | _B,A, G,2 F,4 | C2 DD DCD^C | A,A, (B,A,) F,4 ||[M:3/4] B,2 B,B, B,B, | %5
[M:4/4] A,2 B,2 C4 |[M:3/4] C2 DC B,=B, |[M:4/4] ^C2 (A,G,) F,4 |] %8
V:4
 F,2 F,F, B,,D,C,C, | ^C,D, A,,2 D,4 | F,2 D,D, G,A,B,A, | E,F, (G,A,) D,4 || %4
[M:3/4] G,2 F,F, E,C, |[M:4/4] D,2 C,2 (F,2 E,2) |[M:3/4] D,2 D,^F, G,^G, |[M:4/4] A,2 A,,2 D,4 |] %8

